X: 38530
T: Step It Out Molly
R: polka
M: 2/4
K: Cmajor
|:ge cG/c/|Bc de|fd ed|ce g>f|
ge cG/c/|Bc de|fd eB|1 dc c>f:|2 dc c>F||
|:EG GE|FA AB/A/|Gc/G/ AB|ce/c/ G>F|
EG GE|FA AB/A/|Gc/G/ AB|1 c2 c>F:|2 c2 c>f||

